X:38
T:Morrison's
M:6/8
L:1/8
R:jig
K:Edor
|:E3 B3|EBE AFD|EDE B3|dcB AFD|E3 B3|EBE AFD|G3 FGA|
dAG FED:| Bee fee|aee fee|Bee fee|1a2g fed| Bee fee|aee fee|
gfe d2A|BAG FGA:|2 faf def| g3 gfe|def g2d|edc d2A|BAG FED||
